X: 38631
T: Stories To Tell
R: waltz
M: 3/4
K: Eminor
"C"G3 F2 E|"Em"D B,4B,|"D"A,4A, G,|"G"B,6|
"C"G3 F2 E|"Em"D B,4B,|"D"A,4A, G,|1 "Em"E4 EF:|2 "Em"E4 F2|
|:"G"G3 F G2|"Em"d B4B|"D"A4 G2|"G"B4 BA|
"G"G3 F G2|"Em"d B4B|1 "D"A4A B|"Bm"B4 BA:|2 "D"A4 G2|"Em"E4 F2||

